symbols/web/crib/materialsymbolssharp/crib_wght100fill1_20px.svg

<svg xmlns="http://www.w3.org/2000/svg" height="20" width="20"><path d="M10 15.667q.583 0 1.094-.073.51-.073 1.031-.24V12.25h-4.25v3.104q.521.167 1.031.24.511.073 1.094.073Zm0 .666q-1.438 0-2.76-.51-1.323-.511-2.407-1.448l.479-.479q.417.375.896.666.48.292 1 .521V12.25H4.417V6.667q0-.938.656-1.594.656-.656 1.594-.656h2.458v3.75h6.458v4.083h-2.791v2.833q.52-.229 1-.521.479-.291.896-.666l.479.479q-1.084.937-2.407 1.448-1.322.51-2.76.51Z"/></svg>

<svg xmlns="http://www.w3.org/2000/svg" height="20" width="20"><path d="M10 15.667Q10.583 15.667 11.094 15.594Q11.604 15.521 12.125 15.354V12.25H7.875V15.354Q8.396 15.521 8.906 15.594Q9.417 15.667 10 15.667ZM10 16.333Q8.562 16.333 7.24 15.823Q5.917 15.312 4.833 14.375L5.312 13.896Q5.729 14.271 6.208 14.562Q6.688 14.854 7.208 15.083V12.25H4.417V6.667Q4.417 5.729 5.073 5.073Q5.729 4.417 6.667 4.417H9.125V8.167H15.583V12.25H12.792V15.083Q13.312 14.854 13.792 14.562Q14.271 14.271 14.688 13.896L15.167 14.375Q14.083 15.312 12.76 15.823Q11.438 16.333 10 16.333Z"/></svg>
